!! 00005] TT[TB
!! Eigene Aufnahme
!!!OTL: Qi bai ma
!!!ARE: Asia, China, Shsanxi, Nord
!! Ethnic Group: Han
!! MM, vorhanden, handschriftlich), 1. Variante von "Rote Schuhe" und
!!    Vorlaeufer von Dong Fang Hong.
!!!SCT: C0367
!!!YEM: Copyright 1995, estate of Helmut Schaffrath.
**kern
*ICvox
*Ivox
*M2/4
*k[b-]
*F:
{4cc
8cc
8dd
=1
4.g
8cc
=2
8a
8g
8f
8d
=3
2g}
=4
{4cc
8g
8a
=5
4f
8e
8d
=6
4c
4cc
=7
4g}
{8a
8g
=8
4f
8e
8d
=9
8g
8a
8g
8f
=10
8g
8f
8e
8d
=11
2c}
==
!!!AGN: Xiaodiao. Xin minge
!! Saengerin: Huang Bai.
!!    Dong Fang hong - Vorlaeufer. Erster Text der 8. Armee. - Singt eine
!!    zusaetzliche, nicht notierte! Punktierung.
!!!ONB: ESAC (Essen Associative Code) Database: CHINA
!!!AMT: simple duple
!!!AIN: vox
!!!EED: Helmut Schaffrath
!!!EEV: 1.0
*-
